images/standarts/standart-19.svg

<svg width="25" height="24" viewBox="0 0 25 24" fill="none" xmlns="http://www.w3.org/2000/svg">
<g clip-path="url(#clip0_68_4618)">
<path fill-rule="evenodd" clip-rule="evenodd" d="M2.5 7.9141V15.9141H7.5859L13.5 21.8282V2L7.5859 7.9141H2.5ZM20.5 3C20.5 2.44772 20.9477 2 21.5 2C22.0523 2 22.5 2.44772 22.5 3V21C22.5 21.5523 22.0523 22 21.5 22C20.9477 22 20.5 21.5523 20.5 21V3ZM15.5 8C15.5 8.55228 15.9477 9 16.5 9H17.5C18.0523 9 18.5 8.55228 18.5 8C18.5 7.44772 18.0523 7 17.5 7H16.5C15.9477 7 15.5 7.44772 15.5 8ZM16.5 13C15.9477 13 15.5 12.5523 15.5 12C15.5 11.4477 15.9477 11 16.5 11H17.5C18.0523 11 18.5 11.4477 18.5 12C18.5 12.5523 18.0523 13 17.5 13H16.5ZM15.5 16C15.5 16.5523 15.9477 17 16.5 17H17.5C18.0523 17 18.5 16.5523 18.5 16C18.5 15.4477 18.0523 15 17.5 15H16.5C15.9477 15 15.5 15.4477 15.5 16Z" fill="white"/>
</g>
<defs>
<clipPath id="clip0_68_4618">
<rect width="24" height="24" fill="white" transform="translate(0.5)"/>
</clipPath>
</defs>
</svg>

<svg width="25" height="24" fill="none" xmlns="http://www.w3.org/2000/svg"><g clip-path="url(#clip0_68_4618)"><path fill-rule="evenodd" clip-rule="evenodd" d="M2.5 7.914v8h5.086l5.914 5.914V2L7.586 7.914H2.5zM20.5 3a1 1 0 112 0v18a1 1 0 11-2 0V3zm-5 5a1 1 0 001 1h1a1 1 0 100-2h-1a1 1 0 00-1 1zm1 5a1 1 0 110-2h1a1 1 0 110 2h-1zm-1 3a1 1 0 001 1h1a1 1 0 100-2h-1a1 1 0 00-1 1z" fill="#fff"/></g><defs><clipPath id="clip0_68_4618"><path fill="#fff" transform="translate(.5)" d="M0 0h24v24H0z"/></clipPath></defs></svg>
